src/assets/icon-social-media-management.svg

<svg width="90" height="90" viewBox="0 0 90 90" fill="none" xmlns="http://www.w3.org/2000/svg">
<circle cx="45" cy="45" r="45" fill="#FFE58B"/>
<path d="M68.625 58.5V55.125H65.0796C64.8619 54.0687 64.4425 53.0642 63.8443 52.1668L66.3587 49.6524L63.9726 47.2663L61.4582 49.7807C60.5608 49.1825 59.5563 48.7631 58.5 48.5454V45H55.125V48.5454C54.0687 48.7631 53.0642 49.1825 52.1668 49.7807L49.6524 47.2663L47.2663 49.6524L49.7807 52.1668C49.1825 53.0642 48.7631 54.0687 48.5454 55.125H45V58.5H48.5454C48.7631 59.5563 49.1825 60.5608 49.7807 61.4582L47.2663 63.9726L49.6524 66.3587L52.1668 63.8443C53.0642 64.4425 54.0687 64.8619 55.125 65.0796V68.625H58.5V65.0796C59.5563 64.8619 60.5608 64.4425 61.4582 63.8443L63.9726 66.3587L66.3587 63.9726L63.8443 61.4582C64.4425 60.5608 64.8619 59.5563 65.0796 58.5H68.625ZM56.8125 61.875C55.8112 61.875 54.8325 61.5781 53.9999 61.0218C53.1674 60.4655 52.5185 59.6749 52.1354 58.7498C51.7522 57.8248 51.6519 56.8069 51.8473 55.8249C52.0426 54.8428 52.5248 53.9408 53.2328 53.2328C53.9408 52.5248 54.8428 52.0426 55.8249 51.8473C56.8069 51.6519 57.8248 51.7522 58.7498 52.1354C59.6749 52.5185 60.4655 53.1674 61.0218 53.9999C61.5781 54.8325 61.875 55.8112 61.875 56.8125C61.8737 58.1547 61.3399 59.4416 60.3907 60.3907C59.4416 61.3399 58.1547 61.8737 56.8125 61.875Z" fill="#111827"/>
<path d="M65.25 24.75H24.75C23.8552 24.7509 22.9972 25.1068 22.3645 25.7395C21.7318 26.3722 21.3759 27.2302 21.375 28.125V61.875C21.3759 62.7698 21.7318 63.6278 22.3645 64.2605C22.9972 64.8932 23.8552 65.2491 24.75 65.25H41.625V61.875H24.75V38.25H65.25V43.3125H68.625V28.125C68.6241 27.2302 68.2682 26.3722 67.6355 25.7395C67.0028 25.1068 66.1448 24.7509 65.25 24.75ZM65.25 34.875H24.75V28.125H65.25V34.875Z" fill="#111827"/>
<path d="M51.75 33.1875C52.682 33.1875 53.4375 32.432 53.4375 31.5C53.4375 30.568 52.682 29.8125 51.75 29.8125C50.818 29.8125 50.0625 30.568 50.0625 31.5C50.0625 32.432 50.818 33.1875 51.75 33.1875Z" fill="#111827"/>
<path d="M56.8125 33.1875C57.7445 33.1875 58.5 32.432 58.5 31.5C58.5 30.568 57.7445 29.8125 56.8125 29.8125C55.8805 29.8125 55.125 30.568 55.125 31.5C55.125 32.432 55.8805 33.1875 56.8125 33.1875Z" fill="#111827"/>
<path d="M61.875 33.1875C62.807 33.1875 63.5625 32.432 63.5625 31.5C63.5625 30.568 62.807 29.8125 61.875 29.8125C60.943 29.8125 60.1875 30.568 60.1875 31.5C60.1875 32.432 60.943 33.1875 61.875 33.1875Z" fill="#111827"/>
</svg>

<svg width="90" height="90" fill="none" xmlns="http://www.w3.org/2000/svg"><circle cx="45" cy="45" r="45" fill="#FFE58B"/><path d="M68.625 58.5v-3.375H65.08a8.385 8.385 0 0 0-1.236-2.958l2.515-2.515-2.386-2.386-2.515 2.515a8.385 8.385 0 0 0-2.958-1.236V45h-3.375v3.545a8.385 8.385 0 0 0-2.958 1.236l-2.515-2.515-2.386 2.386 2.515 2.515a8.385 8.385 0 0 0-1.236 2.958H45V58.5h3.545a8.385 8.385 0 0 0 1.236 2.958l-2.515 2.515 2.386 2.386 2.515-2.515a8.385 8.385 0 0 0 2.958 1.236v3.545H58.5V65.08a8.385 8.385 0 0 0 2.958-1.236l2.515 2.515 2.386-2.386-2.515-2.515A8.385 8.385 0 0 0 65.08 58.5h3.545Zm-11.813 3.375a5.063 5.063 0 1 1 0-10.125 5.063 5.063 0 0 1 0 10.125Z" fill="#111827"/><path d="M65.25 24.75h-40.5a3.379 3.379 0 0 0-3.375 3.375v33.75a3.379 3.379 0 0 0 3.375 3.375h16.875v-3.375H24.75V38.25h40.5v5.063h3.375V28.124a3.379 3.379 0 0 0-3.375-3.375Zm0 10.125h-40.5v-6.75h40.5v6.75Z" fill="#111827"/><path d="M51.75 33.188a1.687 1.687 0 1 0 0-3.375 1.687 1.687 0 0 0 0 3.375ZM56.813 33.188a1.687 1.687 0 1 0 0-3.375 1.687 1.687 0 0 0 0 3.375ZM61.875 33.188a1.687 1.687 0 1 0 0-3.375 1.687 1.687 0 0 0 0 3.375Z" fill="#111827"/></svg>
